svgs/sharp-light/microscope.svg

<svg xmlns="http://www.w3.org/2000/svg" viewBox="0 0 512 512"><!--! Font Awesome Pro 6.6.0 by @fontawesome - https://fontawesome.com License - https://fontawesome.com/license (Commercial License) Copyright 2024 Fonticons, Inc. --><path d="M176 0L160 0l0 16 0 16-16 0-16 0 0 16 0 256 0 16 16 0 128 0 16 0 0-16 0-144c88.4 0 160 71.6 160 160s-71.6 160-160 160l-80 0L16 480 0 480l0 32 16 0 192 0 80 0 208 0 16 0 0-32-16 0-101.8 0c51.7-34.4 85.8-93.2 85.8-160c0-106-86-192-192-192l0-80 0-16-16 0-16 0 0-16 0-16L240 0 176 0zM160 288l0-224 16 0 16 0 0-16 0-16 32 0 0 16 0 16 16 0 16 0 0 224-96 0zm0 64l0 32 16 0 64 0 16 0 0-32-16 0-64 0-16 0zM96 416l0 32 16 0 192 0 16 0 0-32-16 0-192 0-16 0z"/></svg>

<svg xmlns="http://www.w3.org/2000/svg" viewBox="0 0 512 512"><!--! Font Awesome Pro 6.4.0 by @fontawesome - https://fontawesome.com License - https://fontawesome.com/license (Commercial License) Copyright 2023 Fonticons, Inc. --><path d="M176 0H160V16 32H144 128V48 304v16h16H272h16V304 160c88.4 0 160 71.6 160 160s-71.6 160-160 160H208 16 0v32H16 208h80H496h16V480H496 394.2c51.7-34.4 85.8-93.2 85.8-160c0-106-86-192-192-192V48 32H272 256V16 0H240 176zM160 288V64h16 16V48 32h32V48 64h16 16V288H160zm0 64v32h16 64 16V352H240 176 160zM96 416v32h16H304h16V416H304 112 96z"/></svg>
